app/assets/v2/images/landing/contributor/feat-2.svg

<svg height="69" width="54" xmlns="http://www.w3.org/2000/svg"><g fill="none" fill-rule="evenodd" transform="translate(0 -1)"><circle cx="27" cy="34" fill="#d6fbeb" r="27"/><rect fill="#15003e" height="3" rx="1.5" width="23" x="16" y="67"/><g stroke="#15003e" stroke-width="2"><ellipse cx="22.837" cy="39.587" rx="3.815" ry="6.207"/><ellipse cx="27.924" cy="39.587" rx="3.815" ry="6.207"/><ellipse cx="33.011" cy="39.587" rx="3.815" ry="6.207"/></g><g fill="#15003e"><path d="m14.1 55.186v3.61c0 1.797 1.4 3.26 3.121 3.26h20.559c1.72 0 3.12-1.463 3.12-3.26v-3.61h-26.799zm23.68 8.814h-20.56c-2.747 0-4.982-2.335-4.982-5.204v-5.556h30.522v5.555c0 2.87-2.235 5.204-4.982 5.204z"/><path d="m14.203 53.057h26.594l4.384-17.45c-.061-9.808-7.971-17.767-17.681-17.767-9.712 0-17.62 7.96-17.68 17.767zm28.009 1.84h-29.424l-4.788-19.062v-.115c0-10.874 8.748-19.72 19.5-19.72s19.5 8.846 19.5 19.72v.115l-.028.111-4.76 18.95z"/></g><path d="m19.022 40 1.271 12.414m16.533-12.414-1.272 12.414" stroke="#15003e" stroke-linecap="square" stroke-width="2"/><path d="m13.96 6.033 5.52 6.106a1.367 1.367 0 0 1 -.102 1.934 1.378 1.378 0 0 1 -1.942-.101l-5.52-6.106a1.367 1.367 0 0 1 .102-1.935 1.378 1.378 0 0 1 1.942.102zm27.476 0-5.52 6.106a1.367 1.367 0 0 0 .102 1.934 1.378 1.378 0 0 0 1.942-.101l5.52-6.106a1.367 1.367 0 0 0 -.102-1.935 1.378 1.378 0 0 0 -1.942.102zm-15.436-3.533v7a1.5 1.5 0 0 0 3 0v-7a1.5 1.5 0 1 0 -3 0z" fill="#15003e"/></g></svg>

<svg width="54" height="69" xmlns="http://www.w3.org/2000/svg"><g transform="translate(0 -1)" fill="none" fill-rule="evenodd"><circle fill="#D6FBEB" cx="27" cy="34" r="27"/><rect fill="#15003E" x="16" y="67" width="23" height="3" rx="1.5"/><g transform="translate(19.022 33.38)" stroke="#15003E" stroke-width="2"><ellipse cx="3.815" cy="6.207" rx="3.815" ry="6.207"/><ellipse cx="8.902" cy="6.207" rx="3.815" ry="6.207"/><ellipse cx="13.989" cy="6.207" rx="3.815" ry="6.207"/></g><g fill="#15003E"><path d="M14.1 55.186v3.61c0 1.797 1.4 3.26 3.121 3.26H37.78c1.72 0 3.12-1.463 3.12-3.26v-3.61H14.101zM37.78 64H17.22c-2.747 0-4.982-2.335-4.982-5.204V53.24H42.76v5.555c0 2.87-2.235 5.204-4.982 5.204z"/><path d="M14.203 53.057h26.594l4.384-17.45C45.12 25.799 37.21 17.84 27.5 17.84c-9.712 0-17.62 7.96-17.68 17.767l4.383 17.45zm28.009 1.84H12.788L8 35.835v-.115C8 24.846 16.748 16 27.5 16S47 24.846 47 35.72v.115l-.028.111-4.76 18.95z"/></g><path d="M19.022 40l1.271 12.414M36.826 40l-1.272 12.414" stroke="#15003E" stroke-width="2" stroke-linecap="square"/><path d="M13.96 6.033l5.52 6.106a1.367 1.367 0 0 1-.102 1.934 1.378 1.378 0 0 1-1.942-.101l-5.52-6.106a1.367 1.367 0 0 1 .102-1.935 1.378 1.378 0 0 1 1.942.102zm27.476 0l-5.52 6.106a1.367 1.367 0 0 0 .102 1.934 1.378 1.378 0 0 0 1.942-.101l5.52-6.106a1.367 1.367 0 0 0-.102-1.935 1.378 1.378 0 0 0-1.942.102zM26 2.5v7a1.5 1.5 0 0 0 3 0v-7a1.5 1.5 0 1 0-3 0z" fill="#15003E"/></g></svg>
